src/assets/give-classes.svg

<svg width="40" height="40" viewBox="0 0 40 40" fill="none" xmlns="http://www.w3.org/2000/svg">
<g clip-path="url(#clip0)">
<path d="M19.4444 25.04V32.52M19.4444 25.04H13.8889M19.4444 25.04H25M13.8889 25.04L7.22222 34M13.8889 25.04H9C6.79086 25.04 5 23.2491 5 21.04V10C5 7.79087 6.79086 6 9 6H31C33.2091 6 35 7.79086 35 10V21.04C35 23.2491 33.2091 25.04 31 25.04H25M25 25.04L32.7778 34" stroke="white" stroke-width="3" stroke-linecap="round"/>
</g>
<defs>
<clipPath id="clip0">
<rect width="40" height="40" rx="8" fill="white"/>
</clipPath>
</defs>
</svg>

<svg width="40" height="40" fill="none" xmlns="http://www.w3.org/2000/svg"><g clip-path="url(#a)"><path d="M19.444 25.04v7.48m0-7.48H13.89m5.555 0H25m-11.111 0L7.222 34m6.667-8.96H9a4 4 0 0 1-4-4V10a4 4 0 0 1 4-4h22a4 4 0 0 1 4 4v11.04a4 4 0 0 1-4 4h-6m0 0L32.778 34" stroke="#fff" stroke-width="3" stroke-linecap="round"/></g><defs><clipPath id="a"><rect width="40" height="40" rx="8" fill="#fff"/></clipPath></defs></svg>
